X: 1
T: Loguivy de la Mer
Z: Created with TablEdit http://www.tabledit.com/ by Bernard Loffet
M: 3/4
L: 1/8
K: C
z4 AB | [c2A,2] [c2A,2] [c2A,2] | [c2A,2] [c2A,2] [c2A,2] | [c2A,2] [^c2A,2] [=c2A,2] | \
 [B2G,2] G,2 [BG,]B | [B2G,2] [B2G,2] [B2G,2] | [B2G,2] [B2G,2] [B2G,2] | [B2E,2] [B2E,2] [B2E,2] | \
 [A2A,2] A,2 [^cA,]c | [^c2D,2] [c2D,2] [c2D,2] | [^c2D,2] [c2D,2] [c2D,2] | [^c2D,2] [c2D,2] [c2D,2] | \
 [B2G,2] G,2 [BG,]B | [B2G,2] [B2G,2] [B2G,2] | [B2C,2] [B2C,2] [B2C,2] | [B2G,2] [B2G,2] [B2G,2] | \
 [B2C,2] C,2 [BC,]B | [B2C,2] [B2C,2] [B2C,2] | [B2G,2] [B2G,2] [B2G,2] | [B2G,2] [B2G,2] [B2G,2] | \
 [c2A,2] [c2A,2] [c2A,2] | [c2A,2] [A2A,2] [c2A,2] | [B2E,2] [B2E,2] [B2E,2] | [B2E,2] [B2E,2] [B2E,2] | \
 [^c2A,2] A,2 A,2 | [B2G,2] [B2G,2] [B2G,2] | \
K:G
 [A2D,2] D,2 D,2 | D,2 [G2G,2] [A2D,2] | [B2G,2] [B2G,2] [B2G,2] | [B2G,2] G,2 G,2 | \
 G,2 [B2G,2] [B2G,2] | [^c2G,2] [c2G,2] [c2G,2] | [^c2G,2] G,2 G,2 | G,2 [c2G,2] [^c2G,2] | \
 [B2C,2] [B2C,2] [B2C,2] | [B2C,2] C,2 C,2 | C,2 [B2C,2] [B2C,2] | [c2D,2] [^c2D,2] [c2D,2] | \
 [^c2G,2] G,2 G,2 | G,2 [^c2G,2] [=c2G,2] | [B2E,2] [B2E,2] [B2E,2] | [c2A,2] A,2 A,2 | \
 A,2 [c2A,2] [B2A,2] | [A2D,2] [B2D,2] [c2D,2] | [B2G,2] G,2 G,2 | G,2 [A2G,2] [G2G,2] | \
 [G2E,2] [A2A,2] [B2E,2] | [A2A,2] A,2 A,2 | A,2 [A2A,2] [G2E,2] | [F2D,2] [G2G,2] [A2D,2] | \
 [G2G,2] G,2 G,2 | G,2 G,4 | \

